app/dist/common/images/aziyo-biologics.svg

<svg height="18" viewBox="0 0 18 18" width="18" xmlns="http://www.w3.org/2000/svg"><path d="m0 0h18v18h-18z" fill="#fc4f00"/><path d="m6.54 5.74a4.61 4.61 0 0 1 3.74-1.74c.57 0 1.74.18 2.58 1.06v.54l-.4-.11a4.14 4.14 0 0 0 -2.7-.95 5.5 5.5 0 0 0 -3.22 1.2zm-.91 6.53a4.1 4.1 0 0 0 3.35 1.73c.57 0 1.94-.27 2.9-1.4-.4.32-1.49.82-2.64.83a3.73 3.73 0 0 1 -3.07-1.6l-.41-.24zm.05-6.27-2.68 6h1.1l2.04-4.7.89 2.04h-1.18l-.45 1.13h2.03l.75 1.53h1.12l-2.67-6zm4.03 0h4.79v.75l-3.38 4.25h3.38v1h-4.8v-.74l3.38-4.26h-3.37z" fill="#fff"/></svg>

<!-- by TradingView --><svg xmlns="http://www.w3.org/2000/svg" width="18" height="18" viewBox="0 0 18 18"><path fill="#FC4F00" d="M0 0h18v18H0z"/><path d="M6.54 5.74A4.61 4.61 0 0 1 10.28 4c.57 0 1.74.18 2.58 1.06v.54l-.4-.11a4.14 4.14 0 0 0-2.7-.95 5.5 5.5 0 0 0-3.22 1.2Zm-.91 6.53A4.1 4.1 0 0 0 8.98 14c.57 0 1.94-.27 2.9-1.4-.4.32-1.49.82-2.64.83a3.73 3.73 0 0 1-3.07-1.6l-.41-.24-.13.68ZM5.68 6 3 12h1.1l2.04-4.7.89 2.04H5.85l-.45 1.13h2.03L8.18 12H9.3L6.63 6h-.95Zm4.03 0h4.79v.75L11.12 11h3.38v1H9.7v-.74L13.08 7H9.71V6Z" fill="#fff"/></svg>
